Sources/FrostedUI/Resources/Icons.xcassets/headphones32.imageset/headphones-32.svg

<svg width="32" height="32" viewBox="0 0 32 32" fill="none" xmlns="http://www.w3.org/2000/svg" data-fui-icon="true">
  <path
    d="M16 2.75C20.6985 2.75 24.0419 4.45612 26.1982 7.0166C28.3367 9.55608 29.25 12.8657 29.25 16V22C29.25 22.0417 29.2448 22.0823 29.2383 22.1221C29.2452 22.2472 29.25 22.3732 29.25 22.5C29.25 26.2279 26.2279 29.25 22.5 29.25C20.9812 29.25 19.75 28.0188 19.75 26.5V18.5C19.75 16.9812 20.9812 15.75 22.5 15.75C24.6207 15.75 26.5125 16.7283 27.75 18.2578V16C27.75 13.1345 26.913 10.1939 25.0518 7.9834C23.2081 5.7941 20.3013 4.25 16 4.25C11.6987 4.25 8.79186 5.7941 6.94824 7.9834C5.08698 10.1939 4.25 13.1345 4.25 16V18.2578C5.48746 16.7283 7.37932 15.75 9.5 15.75C11.0188 15.75 12.25 16.9812 12.25 18.5V26.5C12.25 28.0188 11.0188 29.25 9.5 29.25C5.77208 29.25 2.75 26.2279 2.75 22.5C2.75 22.3732 2.75384 22.2472 2.76074 22.1221C2.75422 22.0823 2.75 22.0416 2.75 22V16C2.75 12.8657 3.66325 9.55608 5.80176 7.0166C7.95815 4.45612 11.3015 2.75 16 2.75ZM9.5 17.25C6.60051 17.25 4.25 19.6005 4.25 22.5C4.25 25.3995 6.60051 27.75 9.5 27.75C10.1904 27.75 10.75 27.1904 10.75 26.5V18.5C10.75 17.8096 10.1904 17.25 9.5 17.25ZM22.5 17.25C21.8096 17.25 21.25 17.8096 21.25 18.5V26.5C21.25 27.1904 21.8096 27.75 22.5 27.75C25.3995 27.75 27.75 25.3995 27.75 22.5C27.75 19.6005 25.3995 17.25 22.5 17.25Z"
    fill="currentColor"
  />
</svg>

<svg xmlns="http://www.w3.org/2000/svg" width="32" height="32" fill="none" data-fui-icon="true" viewBox="0 0 32 32"><path fill="currentColor" d="M16 2.75c4.698 0 8.042 1.706 10.198 4.267 2.139 2.54 3.052 5.849 3.052 8.983v6a1 1 0 0 1-.012.122q.011.188.012.378a6.75 6.75 0 0 1-6.75 6.75 2.75 2.75 0 0 1-2.75-2.75v-8a2.75 2.75 0 0 1 2.75-2.75c2.12 0 4.012.978 5.25 2.508V16c0-2.866-.837-5.806-2.698-8.017C23.208 5.794 20.302 4.25 16 4.25S8.792 5.794 6.948 7.983C5.087 10.193 4.25 13.134 4.25 16v2.258A6.74 6.74 0 0 1 9.5 15.75a2.75 2.75 0 0 1 2.75 2.75v8a2.75 2.75 0 0 1-2.75 2.75 6.75 6.75 0 0 1-6.74-7.128A1 1 0 0 1 2.75 22v-6c0-3.134.913-6.444 3.052-8.983C7.958 4.457 11.302 2.75 16 2.75m-6.5 14.5a5.25 5.25 0 1 0 0 10.5c.69 0 1.25-.56 1.25-1.25v-8c0-.69-.56-1.25-1.25-1.25m13 0c-.69 0-1.25.56-1.25 1.25v8c0 .69.56 1.25 1.25 1.25a5.25 5.25 0 1 0 0-10.5"/></svg>
